X:269
T:The Stranger
R:hornpipe
M:4/4
L:1/8
K:Dmix
B2 BG A2 (3ABc | (3dcB (3AGF G2 F>G | A>FD>E F>AG>E | D>EF>G A>Dd>c |
B>cB>G A>B (3cBA | d>cA>F G2 F>G | A*FD>E F*AG>E | D2 D2 D2 :|
A>dd>e f2 e>^c | d>^cA>F A2 F>G | A>dd>e f>d (3ed^c | d2 d^c d>ef>g |
a>gf>d g2 f>e | d*cA>F G2 F>G | A*FD>E F>A (3GFE | D2 D2 D2 :|

